X:9001
T:In the Bleak Midwinter (in D)
R:March
O:England
C:Gustav Holst 1906
Z:Paul Hardy's Xmas Parts Tunebook 2022 (see www.paulhardy.net). Creative Commons cc by-nc-sa licenced.
M:4/4
L:1/8
Q:1/4=110
%%score [1 2 3]
K:D
V:1
%%MIDI program 23 % Tango Accordion
%%voicecolor black
F3 G A2 F2|E4 D4|E3 F E2 B,2|E6 z2|F3 G A2 F2|E4 D4|E2 F2 E3 D|D6 z2|
G3 F G2 A2|B4 F4|A2 F2 E2 D2|C6 z2|F3 G A2 F2|E4 D4|E2 F2 E3 D|D8:|
V:2 transpose =-12
%%voicecolor maroon
%%MIDI program 42 % Cello
D3 E F2 D2|B,4 F4|G3 A G4|C6 z2|D3 E F2 D2|B,2 C2 A,4|G,4 C2 A,2|F6 z2|
B,4 B,4|E2 B,2 D4|D4 B,4|A,3 D E2 A,2|A,3 D D2 A,2|A,2 C2 A,2 z2|B,4 C3 D|[D8A,8]:|
V:3
%%voicecolor teal
%%MIDI program 32 % Acoustic Bass
[A,8D8]|G2 C2 D4|D4 B,4|A,6 z2|[D8B,8]|G4 F2 z2|G,2 B,2 A,3 D|A,6 z2|
D6 F2|G4 B,4|F4 G4|E6 z2|D3 E F2 D2|G,8|[G,4B,4] A,3 D|F8:|

